apps/www/public/images/ga/partners/twilio--light.svg

<svg width="626" height="190" viewBox="0 0 626 190" fill="none" xmlns="http://www.w3.org/2000/svg">
<g clip-path="url(#clip0_868_2121)">
<path d="M441.191 37.9329H407.834C407.406 37.9648 407.003 38.1493 406.7 38.4528C406.396 38.7564 406.211 39.1589 406.18 39.587V58.8849C406.211 59.3131 406.396 59.7156 406.7 60.0191C407.003 60.3227 407.406 60.5072 407.834 60.5391H441.191C441.62 60.5072 442.022 60.3227 442.326 60.0191C442.629 59.7156 442.814 59.3131 442.846 58.8849V39.587C442.846 38.4843 442.294 37.9329 441.191 37.9329ZM440.64 66.6041H376.681C375.854 66.6041 374.752 67.4312 374.476 68.2582L366.205 99.6862L365.654 101.34L356.005 67.7069C355.729 66.8798 354.902 66.0527 353.8 66.0527H328.988C328.161 66.0527 327.058 66.8798 326.782 67.7069L317.409 99.1349L316.858 100.789L316.306 99.1349L308.587 68.2582C308.312 67.4312 307.485 66.6041 306.382 66.6041H256.483V39.587C256.483 38.76 255.38 37.6572 254.277 38.2086L222.574 47.8576C221.747 48.1333 220.92 48.6846 220.92 49.5117V66.6041H212.649C212.221 66.636 211.818 66.8204 211.515 67.124C211.211 67.4276 211.027 67.8301 210.995 68.2582V92.2428C211.027 92.6709 211.211 93.0734 211.515 93.377C211.818 93.6805 212.221 93.865 212.649 93.8969H220.92V123.119C220.92 143.796 232.223 153.445 253.175 153.445C261.721 153.445 270.267 151.515 275.781 148.482V123.671C275.781 122.292 274.678 122.017 274.127 122.292C270.819 123.671 268.062 124.222 265.029 124.222C259.515 124.222 256.483 122.017 256.483 115.4V93.8969H274.402C274.831 93.865 275.233 93.6805 275.537 93.377C275.84 93.0734 276.025 92.6709 276.057 92.2428V72.1178L299.765 150.964C300.041 151.791 300.868 152.618 301.971 152.618H328.161C328.988 152.618 330.091 151.791 330.366 150.964L341.669 115.952L352.697 150.688C352.972 151.515 354.075 152.342 354.902 152.342H381.092C381.919 152.342 383.022 151.515 383.298 150.688L407.282 71.5664V150.688C407.314 151.116 407.499 151.518 407.802 151.822C408.106 152.126 408.508 152.31 408.936 152.342H440.916C441.344 152.31 441.746 152.126 442.05 151.822C442.354 151.518 442.538 151.116 442.57 150.688V68.2582C442.294 67.1555 441.467 66.6041 440.64 66.6041ZM482.82 37.9329H450.84C450.412 37.9648 450.01 38.1493 449.706 38.4528C449.403 38.7564 449.218 39.1589 449.186 39.587V150.688C449.218 151.116 449.403 151.518 449.706 151.822C450.01 152.126 450.412 152.31 450.84 152.342H482.82C483.248 152.31 483.65 152.126 483.954 151.822C484.258 151.518 484.442 151.116 484.474 150.688V39.587C484.474 38.4843 483.647 37.9329 482.82 37.9329ZM525.551 37.9329H492.193C491.765 37.9648 491.363 38.1493 491.059 38.4528C490.755 38.7564 490.571 39.1589 490.539 39.587V58.8849C490.571 59.3131 490.755 59.7156 491.059 60.0191C491.363 60.3227 491.765 60.5072 492.193 60.5391H525.551C525.979 60.5072 526.382 60.3227 526.685 60.0191C526.989 59.7156 527.173 59.3131 527.205 58.8849V39.587C527.205 38.4843 526.654 37.9329 525.551 37.9329ZM525 66.6041H493.02C492.592 66.636 492.19 66.8204 491.886 67.124C491.582 67.4276 491.398 67.8301 491.366 68.2582V150.688C491.398 151.116 491.582 151.518 491.886 151.822C492.19 152.126 492.592 152.31 493.02 152.342H525C525.428 152.31 525.83 152.126 526.134 151.822C526.437 151.518 526.622 151.116 526.654 150.688V68.2582C526.654 67.1555 525.827 66.6041 525 66.6041ZM577.931 64.3986C549.811 64.3986 529.962 85.075 529.962 109.06V109.335C529.962 133.32 549.811 153.72 577.655 153.72C605.775 153.72 625.624 133.044 625.624 109.06V108.784C625.9 84.7993 606.051 64.3986 577.931 64.3986ZM591.715 109.335C591.715 117.33 585.926 124.222 577.931 124.222C570.212 124.222 563.871 117.606 563.871 109.06V108.784C563.871 100.789 569.66 93.8969 577.655 93.8969C585.374 93.8969 591.715 100.513 591.715 109.06V109.335ZM94.3805 0.991211C42.5518 0.991211 0.37207 43.1709 0.37207 94.9996C0.37207 146.828 42.5518 189.008 94.3805 189.008C146.485 189.284 188.665 147.104 188.665 94.9996C188.665 42.8952 146.485 0.991211 94.3805 0.991211ZM94.3805 164.472C56.336 164.472 25.1837 133.32 25.1837 94.9996C25.1837 56.9551 56.336 25.8028 94.3805 25.8028C132.701 25.8028 163.853 56.9551 163.853 94.9996C163.853 133.32 132.701 164.472 94.3805 164.472Z" fill="#171717"/>
<path d="M117.814 91.1399C128.624 91.1399 137.387 82.3765 137.387 71.5663C137.387 60.7561 128.624 51.9927 117.814 51.9927C107.004 51.9927 98.2402 60.7561 98.2402 71.5663C98.2402 82.3765 107.004 91.1399 117.814 91.1399Z" fill="#171717"/>
<path d="M117.814 138.007C128.624 138.007 137.387 129.243 137.387 118.433C137.387 107.623 128.624 98.8594 117.814 98.8594C107.004 98.8594 98.2402 107.623 98.2402 118.433C98.2402 129.243 107.004 138.007 117.814 138.007Z" fill="#171717"/>
<path d="M70.9476 138.007C81.7578 138.007 90.5212 129.243 90.5212 118.433C90.5212 107.623 81.7578 98.8594 70.9476 98.8594C60.1374 98.8594 51.374 107.623 51.374 118.433C51.374 129.243 60.1374 138.007 70.9476 138.007Z" fill="#171717"/>
<path d="M70.9476 91.1399C81.7578 91.1399 90.5212 82.3765 90.5212 71.5663C90.5212 60.7561 81.7578 51.9927 70.9476 51.9927C60.1374 51.9927 51.374 60.7561 51.374 71.5663C51.374 82.3765 60.1374 91.1399 70.9476 91.1399Z" fill="#171717"/>
</g>
<defs>
<clipPath id="clip0_868_2121">
<rect width="626" height="190" fill="white"/>
</clipPath>
</defs>
</svg>

<svg xmlns="http://www.w3.org/2000/svg" width="626" height="190" fill="none" viewBox="0 0 626 190"><g fill="#171717" clip-path="url(#a)"><path d="M441.191 37.933h-33.357a1.79 1.79 0 0 0-1.654 1.654v19.298a1.79 1.79 0 0 0 1.654 1.654h33.357a1.79 1.79 0 0 0 1.655-1.654V39.587q0-1.654-1.655-1.654m-.551 28.671h-63.959c-.827 0-1.929.827-2.205 1.654l-8.271 31.428-.551 1.654-9.649-33.633c-.276-.827-1.103-1.654-2.205-1.654h-24.812c-.827 0-1.93.827-2.206 1.654l-9.373 31.428-.551 1.654-.552-1.654-7.719-30.877c-.275-.827-1.102-1.654-2.205-1.654h-49.899V39.587c0-.827-1.103-1.93-2.206-1.378l-31.703 9.649c-.827.275-1.654.827-1.654 1.654v17.092h-8.271a1.79 1.79 0 0 0-1.654 1.654v23.985a1.79 1.79 0 0 0 1.654 1.654h8.271v29.222c0 20.677 11.303 30.326 32.255 30.326 8.546 0 17.092-1.93 22.606-4.963v-24.811c0-1.379-1.103-1.654-1.654-1.379-3.308 1.379-6.065 1.93-9.098 1.93-5.514 0-8.546-2.205-8.546-8.822V93.897h17.919a1.794 1.794 0 0 0 1.655-1.654V72.118l23.708 78.846c.276.827 1.103 1.654 2.206 1.654h26.19c.827 0 1.93-.827 2.205-1.654l11.303-35.012 11.028 34.736c.275.827 1.378 1.654 2.205 1.654h26.19c.827 0 1.93-.827 2.206-1.654l23.984-79.122v79.122a1.8 1.8 0 0 0 1.654 1.654h31.98a1.79 1.79 0 0 0 1.654-1.654v-82.43c-.276-1.102-1.103-1.654-1.93-1.654m42.18-28.671h-31.98a1.79 1.79 0 0 0-1.654 1.654v111.101a1.8 1.8 0 0 0 1.654 1.654h31.98a1.79 1.79 0 0 0 1.654-1.654V39.587c0-1.103-.827-1.654-1.654-1.654m42.731 0h-33.358a1.79 1.79 0 0 0-1.654 1.654v19.298a1.79 1.79 0 0 0 1.654 1.654h33.358a1.79 1.79 0 0 0 1.654-1.654V39.587q0-1.654-1.654-1.654M525 66.604h-31.98a1.79 1.79 0 0 0-1.654 1.654v82.43a1.79 1.79 0 0 0 1.654 1.654H525a1.79 1.79 0 0 0 1.654-1.654v-82.43c0-1.102-.827-1.654-1.654-1.654m52.931-2.205c-28.12 0-47.969 20.676-47.969 44.661v.275c0 23.985 19.849 44.385 47.693 44.385 28.12 0 47.969-20.676 47.969-44.66v-.276c.276-23.985-19.573-44.385-47.693-44.385m13.784 44.936c0 7.995-5.789 14.887-13.784 14.887-7.719 0-14.06-6.616-14.06-15.162v-.276c0-7.995 5.789-14.887 13.784-14.887 7.719 0 14.06 6.616 14.06 15.163zM94.38.991C42.552.991.372 43.171.372 95s42.18 94.008 94.009 94.008c52.104.276 94.284-41.904 94.284-94.008 0-52.105-42.18-94.009-94.284-94.009m0 163.481c-38.044 0-69.196-31.152-69.196-69.472 0-38.045 31.152-69.197 69.197-69.197 38.32 0 69.472 31.152 69.472 69.197 0 38.32-31.152 69.472-69.473 69.472"/><path d="M117.814 91.14c10.81 0 19.573-8.764 19.573-19.574s-8.763-19.573-19.573-19.573S98.24 60.756 98.24 71.566s8.764 19.574 19.574 19.574M117.814 138.007c10.81 0 19.573-8.764 19.573-19.574s-8.763-19.574-19.573-19.574-19.574 8.764-19.574 19.574 8.764 19.574 19.574 19.574M70.948 138.007c10.81 0 19.573-8.764 19.573-19.574s-8.763-19.574-19.573-19.574-19.574 8.764-19.574 19.574 8.763 19.574 19.574 19.574M70.948 91.14c10.81 0 19.573-8.764 19.573-19.574s-8.763-19.573-19.573-19.573-19.574 8.763-19.574 19.573S60.137 91.14 70.948 91.14"/></g><defs><clipPath id="a"><path fill="#fff" d="M0 0h626v190H0z"/></clipPath></defs></svg>
